X: 41985
T: Walls Of Liscarrol, The
R: jig
M: 6/8
K: Edorian
f|edB BAF|ABA FAB|AFA dAF|ABc d2f|
edB BAF|ABA FAB|AFA dAF|EFE E2:|
z|ede fdB|dBA FAB|ABd efg|fed e2f|
gfe fed|edB d2B|AFA dAF|EFE E2:|

